assets/img/favico.svg

<?xml version="1.0" encoding="UTF-8" standalone="no"?>
<!-- Created with Inkscape (http://www.inkscape.org/) -->

<svg
   width="48.642303mm"
   height="48.642303mm"
   viewBox="0 0 48.642303 48.642303"
   version="1.1"
   id="svg1"
   xml:space="preserve"
   sodipodi:docname="favico.svg"
   inkscape:version="1.3 (0e150ed6c4, 2023-07-21)"
   xmlns:inkscape="http://www.inkscape.org/namespaces/inkscape"
   xmlns:sodipodi="http://sodipodi.sourceforge.net/DTD/sodipodi-0.dtd"
   xmlns:xlink="http://www.w3.org/1999/xlink"
   xmlns="http://www.w3.org/2000/svg"
   xmlns:svg="http://www.w3.org/2000/svg"><sodipodi:namedview
     id="namedview1"
     pagecolor="#ffffff"
     bordercolor="#000000"
     borderopacity="0.25"
     inkscape:showpageshadow="2"
     inkscape:pageopacity="0.0"
     inkscape:pagecheckerboard="0"
     inkscape:deskcolor="#d1d1d1"
     inkscape:document-units="mm"
     showgrid="false"
     inkscape:zoom="1.1055513"
     inkscape:cx="298.94587"
     inkscape:cy="75.527928"
     inkscape:window-width="1920"
     inkscape:window-height="1009"
     inkscape:window-x="-8"
     inkscape:window-y="-8"
     inkscape:window-maximized="1"
     inkscape:current-layer="layer1" /><defs
     id="defs1"><linearGradient
       id="linearGradient1"
       inkscape:collect="always"><stop
         style="stop-color:#5f2eea;stop-opacity:1;"
         offset="0"
         id="stop1" /><stop
         style="stop-color:#80007e;stop-opacity:1;"
         offset="1"
         id="stop2" /></linearGradient><linearGradient
       inkscape:collect="always"
       xlink:href="#linearGradient1"
       id="linearGradient2"
       x1="11.712605"
       y1="12.100718"
       x2="76.526382"
       y2="78.775986"
       gradientUnits="userSpaceOnUse" /><linearGradient
       inkscape:collect="always"
       xlink:href="#linearGradient1"
       id="linearGradient3"
       x1="31.883728"
       y1="37.603512"
       x2="48.995293"
       y2="52.082523"
       gradientUnits="userSpaceOnUse" /></defs><g
     inkscape:label="Layer 1"
     inkscape:groupmode="layer"
     id="layer1"
     transform="translate(-18.481669,-20.731273)"><rect
       style="fill:url(#linearGradient2);fill-opacity:1;stroke-width:0.136622"
       id="rect1"
       width="48.642303"
       height="48.642303"
       x="18.481668"
       y="20.731272"
       ry="24.321152" /><path
       style="fill:#ffffff;stroke-width:2.85129"
       d="m 57.308878,35.288359 c -0.01339,-0.0067 -0.02568,-0.01113 -0.03704,-0.01785 l -4.98973,-2.954201 c -0.310789,0.362685 -0.735637,0.603889 -1.20039,0.68231 -0.464759,0.07875 -0.94092,-0.01113 -1.348651,-0.251776 -0.407731,-0.241784 -0.721375,-0.620714 -0.889601,-1.072931 -0.165321,-0.452223 -0.173801,-0.949197 -0.02005,-1.406815 L 43.79945,27.292342 c -0.136766,-0.07965 -0.296534,-0.101297 -0.447644,-0.05979 -0.148369,0.04127 -0.276566,0.1419 -0.356418,0.280269 l -14.912166,26.481253 -0.0023,0.0012 c -0.03704,0.06826 -0.0627,0.143905 -0.07408,0.222216 -0.009,0.07898 -0.0023,0.157961 0.01785,0.234376 0.02005,0.07675 0.05419,0.147922 0.09972,0.211284 0.0484,0.06247 0.10553,0.114902 0.174028,0.154838 l 5.023938,2.970737 c 0.310792,-0.362105 0.735633,-0.602752 1.200392,-0.68173 0.464759,-0.0781 0.940919,0.01113 1.34865,0.251777 0.407732,0.241494 0.721375,0.619861 0.886744,1.070924 0.168226,0.451081 0.176706,0.947765 0.02568,1.405116 l 4.961225,2.932543 c 0.02005,0.0156 0.03993,0.03187 0.05979,0.04527 0.06849,0.03993 0.142567,0.06471 0.219539,0.07587 0.07407,0.009 0.15395,0.0046 0.22811,-0.0156 0.07407,-0.02005 0.142568,-0.05552 0.205258,-0.103965 0.05979,-0.04753 0.111111,-0.107762 0.151046,-0.1767 v 0.0012 L 57.523821,36.110391 c 0.03993,-0.06849 0.06269,-0.143906 0.07407,-0.222443 0.009,-0.07831 0.0067,-0.157962 -0.01785,-0.234376 -0.01785,-0.07629 -0.05419,-0.147917 -0.09973,-0.210614 -0.0455,-0.0627 -0.105529,-0.115121 -0.171124,-0.154836 z"
       id="path2" /><path
       d="m 49.540163,43.801389 -4.54601,-0.86729 -0.638945,-4.454866 c -0.01226,-0.06559 -0.03683,-0.126626 -0.084,-0.17458 -0.04718,-0.04832 -0.104873,-0.0807 -0.167618,-0.09348 -0.06271,-0.01226 -0.130735,-0.0044 -0.188505,0.0246 -0.05781,0.02865 -0.109826,0.07294 -0.141387,0.13032 l -2.204873,3.914367 -4.430772,-0.844793 c -0.06271,-0.01226 -0.130734,-0.0032 -0.188516,0.0246 -0.05781,0.02865 -0.109827,0.07335 -0.141387,0.130734 -0.03279,0.05695 -0.04718,0.122947 -0.04184,0.188931 0.0044,0.066 0.03279,0.128679 0.07336,0.179084 l 2.932907,3.514265 -2.204916,3.912772 c -0.03278,0.05898 -0.04718,0.125399 -0.04185,0.190975 0.0044,0.06761 0.03278,0.130734 0.07336,0.181127 0.04183,0.05037 0.09954,0.08442 0.162278,0.09996 0.06802,0.0164 0.130735,0.01226 0.193841,-0.01226 l 4.079888,-1.660233 3.006186,3.60328 c 0.04184,0.04876 0.09954,0.08442 0.16228,0.1004 0.06271,0.01641 0.125813,0.01226 0.188516,-0.01226 0.05781,-0.02459 0.109825,-0.06473 0.146705,-0.119253 0.03684,-0.0545 0.05248,-0.119253 0.05248,-0.185236 l -0.07868,-4.830867 4.121771,-2.346301 c 0.05781,-0.03279 0.104874,-0.08154 0.131133,-0.141386 0.02459,-0.05898 0.03683,-0.125813 0.02459,-0.190974 -0.01226,-0.06517 -0.04184,-0.124588 -0.08357,-0.171706 -0.04718,-0.04674 -0.104874,-0.07782 -0.167606,-0.08975 z"
       fill="#5f2eea"
       id="path3"
       style="fill:url(#linearGradient3);fill-opacity:1;stroke-width:5.23732" /></g></svg>

<?xml version="1.0" encoding="UTF-8" standalone="no"?>
<!-- Created with Inkscape (http://www.inkscape.org/) -->

<svg
   width="48.642303mm"
   height="48.642303mm"
   viewBox="0 0 48.642303 48.642303"
   version="1.1"
   id="svg1"
   xml:space="preserve"
   sodipodi:docname="favico.svg"
   inkscape:version="1.3 (0e150ed6c4, 2023-07-21)"
   xmlns:inkscape="http://www.inkscape.org/namespaces/inkscape"
   xmlns:sodipodi="http://sodipodi.sourceforge.net/DTD/sodipodi-0.dtd"
   xmlns:xlink="http://www.w3.org/1999/xlink"
   xmlns="http://www.w3.org/2000/svg"
   xmlns:svg="http://www.w3.org/2000/svg"><sodipodi:namedview
     id="namedview1"
     pagecolor="#ffffff"
     bordercolor="#000000"
     borderopacity="0.25"
     inkscape:showpageshadow="2"
     inkscape:pageopacity="0.0"
     inkscape:pagecheckerboard="0"
     inkscape:deskcolor="#d1d1d1"
     inkscape:document-units="mm"
     showgrid="false"
     inkscape:zoom="2.2111026"
     inkscape:cx="158.5182"
     inkscape:cy="89.774215"
     inkscape:window-width="1920"
     inkscape:window-height="1009"
     inkscape:window-x="-8"
     inkscape:window-y="-8"
     inkscape:window-maximized="1"
     inkscape:current-layer="layer1" /><defs
     id="defs1"><linearGradient
       id="linearGradient4"
       inkscape:collect="always"><stop
         style="stop-color:#4b19db;stop-opacity:1;"
         offset="0"
         id="stop3" /><stop
         style="stop-color:#d000cc;stop-opacity:1;"
         offset="1"
         id="stop4" /></linearGradient><linearGradient
       inkscape:collect="always"
       xlink:href="#linearGradient4"
       id="linearGradient2"
       x1="11.712605"
       y1="12.100718"
       x2="76.526382"
       y2="78.775986"
       gradientUnits="userSpaceOnUse" /></defs><g
     inkscape:label="Layer 1"
     inkscape:groupmode="layer"
     id="layer1"
     transform="translate(-18.481669,-20.731273)"><rect
       style="fill:url(#linearGradient2);fill-opacity:1;stroke-width:0.136622"
       id="rect1"
       width="48.642303"
       height="48.642303"
       x="18.481668"
       y="20.731272"
       ry="24.321152" /><path
       id="path2"
       style="fill:#ffffff;stroke-width:2.85129"
       d="M 43.46619 27.213048 C 43.427825 27.215611 43.389763 27.222308 43.351986 27.232685 C 43.203617 27.273955 43.07527 27.374402 42.995418 27.512771 L 28.08315 53.993842 L 28.081083 53.995392 C 28.044043 54.063652 28.018049 54.13929 28.006669 54.217601 C 27.997669 54.296581 28.004606 54.37528 28.024756 54.451695 C 28.044806 54.528445 28.078961 54.59969 28.124491 54.663052 C 28.172891 54.725522 28.230143 54.778145 28.298641 54.818081 L 33.322624 57.788959 C 33.633415 57.426855 34.057792 57.185808 34.52255 57.10683 C 34.987309 57.028731 35.463575 57.118365 35.871305 57.359011 C 36.279037 57.600505 36.592704 57.978685 36.758073 58.429747 C 36.926299 58.880828 36.934937 59.377479 36.783911 59.834829 L 41.744849 62.767467 C 41.764899 62.783067 41.784933 62.799025 41.804793 62.812425 C 41.873283 62.852355 41.947446 62.87723 42.024418 62.88839 C 42.098488 62.89739 42.178151 62.893087 42.252311 62.872887 C 42.326381 62.852837 42.395293 62.817462 42.457983 62.769017 C 42.517773 62.721487 42.568944 62.661222 42.608878 62.592284 L 42.608878 62.593317 L 57.52373 36.110179 C 57.56366 36.041689 57.586764 35.966508 57.598144 35.887971 C 57.607144 35.809661 57.604608 35.729774 57.580058 35.65336 C 57.562208 35.57707 57.525862 35.505733 57.480322 35.443037 C 57.434822 35.380337 57.374868 35.327722 57.309273 35.288007 L 57.308756 35.288524 C 57.295366 35.281824 57.283426 35.277157 57.272066 35.270437 L 52.28219 32.316096 C 51.971401 32.67878 51.546499 32.92032 51.081746 32.998741 C 50.616988 33.077491 50.140722 32.987723 49.732991 32.747077 C 49.325261 32.505293 49.011866 32.125974 48.84364 31.673758 C 48.678319 31.221535 48.669735 30.724743 48.823486 30.267125 L 43.799503 27.292113 C 43.696929 27.232375 43.581286 27.205359 43.46619 27.213048 z M 44.007243 38.208242 C 44.039309 38.204185 44.072006 38.205213 44.103361 38.211343 C 44.166106 38.224123 44.224129 38.256557 44.271309 38.304877 C 44.318479 38.352831 44.342765 38.413437 44.355025 38.479027 L 44.994263 42.934052 L 49.540238 43.801183 L 49.539205 43.801699 C 49.601937 43.813629 49.659456 43.84436 49.706636 43.8911 C 49.748366 43.938218 49.778092 43.998012 49.790352 44.063182 C 49.802592 44.128343 49.790138 44.194888 49.765548 44.253868 C 49.739289 44.313714 49.692099 44.362672 49.634289 44.395462 L 45.512577 46.741572 L 45.591125 51.572801 C 45.591125 51.638784 45.575772 51.703303 45.538932 51.757803 C 45.502052 51.812326 45.449981 51.852586 45.392171 51.877176 C 45.329468 51.901695 45.266262 51.905471 45.203552 51.889061 C 45.140812 51.873081 45.083128 51.837569 45.041288 51.788809 L 42.03527 48.185411 L 37.955416 49.845775 C 37.89231 49.870295 37.829649 49.874577 37.761629 49.858177 C 37.698891 49.842637 37.641195 49.808295 37.599365 49.757925 C 37.558785 49.707532 37.530385 49.644667 37.525985 49.577058 C 37.520655 49.511482 37.535063 49.444835 37.567843 49.385855 L 39.772359 45.473432 L 36.839722 41.958918 C 36.799152 41.908513 36.770741 41.846117 36.766341 41.780117 C 36.761001 41.714133 36.775409 41.647932 36.808199 41.590982 C 36.839759 41.533598 36.891982 41.48889 36.949792 41.46024 C 37.007574 41.43244 37.075185 41.423176 37.137895 41.435436 L 41.568632 42.280345 L 43.773665 38.365856 C 43.805226 38.308476 43.857449 38.264281 43.915259 38.235631 C 43.944144 38.221131 43.975177 38.2123 44.007243 38.208242 z " /></g></svg>
